src/assets/svgs/compass-spinner.svg

<?xml version="1.0" encoding="UTF-8"?>
<svg width="237px" height="237px" viewBox="0 0 237 237" version="1.1" xmlns="http://www.w3.org/2000/svg" xmlns:xlink="http://www.w3.org/1999/xlink">
    <!-- Generator: Sketch 58 (84663) - https://sketch.com -->
    <title>Group 8@1x</title>
    <desc>Created with Sketch.</desc>
    <defs>
        <polygon id="path-1" points="0 237 237 237 237 0 0 0"></polygon>
    </defs>
    <g id="2.-search" stroke="none" stroke-width="1" fill-rule="evenodd">
        <g id="Artboard" transform="translate(-60.000000, -65.000000)">
            <g id="Group-8" transform="translate(60.000000, 65.000000)">
                <path d="M119,201.21485 C73.6677806,201.21485 36.7848765,164.33389 36.7848765,119 C36.7848765,73.6661096 73.6677806,36.7851502 119,36.7851502 C164.332219,36.7851502 201.215124,73.6661096 201.215124,119 C201.215124,164.33389 164.332219,201.21485 119,201.21485 M119,34 C72.1305288,34 34,72.1314919 34,119 C34,165.871293 72.1305288,204 119,204 C165.869471,204 204,165.871293 204,119 C204,72.1314919 165.869471,34 119,34" id="Fill-1"></path>
                <path d="M149.586254,117.940957 C133.383654,112.967328 124.033415,103.61937 119.060062,87.4158693 C118.889243,86.8613769 118.130359,86.8613769 117.95954,87.4158693 C112.986187,103.61937 103.635948,112.967328 87.413746,117.940957 C86.8620847,118.111785 86.8620847,118.870712 87.413746,119.04154 C103.635948,124.015169 112.986187,133.363127 117.95954,149.586231 C118.130359,150.137923 118.889243,150.137923 119.060062,149.586231 C124.033415,133.363127 133.383654,124.015169 149.586254,119.04154 C150.137915,118.870712 150.137915,118.111785 149.586254,117.940957" id="Fill-3"></path>
                <mask id="mask-2" fill="white">
                    <use xlink:href="#path-1"></use>
                </mask>
                <g id="Clip-6"></g>
                <polygon id="Fill-5" mask="url(#mask-2)" points="0.47 123 0.53 123 0.53 114 0.47 114"></polygon>
                <path d="M212.405108,123.123507 C211.293113,146.519732 201.655817,168.324624 184.970308,185.004363 C167.228542,202.773789 143.636955,212.547531 118.484672,212.547531 C93.3323887,212.547531 69.7157187,202.773789 51.9460836,185.004363 C35.2884441,168.352493 25.6511483,146.519732 24.5391526,123.123507 C24.4555439,121.590698 24.4276744,120.035595 24.4276744,118.502787 C24.4276744,116.969979 24.4555439,115.409302 24.5391526,113.87928 C25.6511483,90.483055 35.2884441,68.6781632 51.9739531,51.9984243 C69.7157187,34.2289981 93.3073061,24.4552563 118.456802,24.4552563 C143.609085,24.4552563 167.228542,34.2289981 184.998177,51.9984243 C201.655817,68.650294 211.293113,90.483055 212.405108,113.87928 C212.488717,115.409302 212.516587,116.969979 212.516587,118.502787 C212.516587,120.060677 212.488717,121.590698 212.405108,123.123507 L212.405108,123.123507 Z M236.944261,113.87928 L220.2058,113.87928 C219.924317,107.416404 219.007408,100.928445 217.474582,94.5213076 L224.8851,92.5202963 L223.6031,87.7825259 L216.220452,89.7333725 C214.18876,82.7716369 211.404591,76.0328551 207.923682,69.709325 L214.523195,65.9218956 L212.042804,61.6049506 L205.443291,65.4481185 C201.680899,59.2667215 197.252425,53.5033631 192.213608,48.2388641 L197.642599,42.8071496 L194.133821,39.3513641 L188.729912,44.7552093 C183.493221,39.7721896 177.729795,35.3158984 171.545538,31.528469 L175.333012,24.9290334 L171.099625,22.420802 L167.256412,29.075976 C160.932807,25.5951082 154.191159,22.8109713 147.201472,20.7235654 L149.177424,13.3688735 L144.442385,12.0896754 L142.466433,19.4694497 C136.114959,17.9366416 129.626924,17.0197437 123.080363,16.7382643 L123.080363,0 L113.833241,0 L113.833241,16.7382643 C106.146815,17.0726952 98.5161279,18.2710724 91.1613495,20.3027399 L88.9903103,12.0896754 L84.196745,13.3688735 L86.4569668,21.7519403 C80.6322276,23.6721308 75.0053622,26.1246237 69.6878491,29.0481068 L65.8725056,22.4486712 L61.5527229,24.9290334 L65.3680664,31.528469 C59.2423359,35.2852422 53.4761227,39.7136642 48.2115618,44.7552093 L42.7547008,39.3513641 L39.2431355,42.8071496 L44.7027834,48.2388641 C39.6890486,53.5033631 35.2605746,59.2945908 31.5009701,65.4481185 L24.8708005,61.6049506 L22.3931961,65.9218956 L29.0205788,69.7371943 C25.5954092,76.0049859 22.78337,82.7437676 20.7238091,89.7333725 L13.3411611,87.7825259 L12.0591611,92.5202963 L19.4418091,94.5213076 C17.8811134,100.984184 16.9614177,107.472143 16.7384612,113.87928 L0,113.87928 L0,123.123507 L16.7384612,123.123507 C17.0171568,129.583596 17.9368525,136.074341 19.4668917,142.478692 L12.0591611,144.485278 L13.3411611,149.217474 L20.7238091,147.269414 C22.7527135,154.23115 25.53967,160.972719 29.0205788,167.293462 L22.4210656,171.080891 L24.89867,175.397836 L31.5009701,171.554668 C35.2605746,177.738852 39.6890486,183.502211 44.730653,188.76671 L39.3016616,194.195637 L42.807653,197.648636 L48.2115618,192.247578 C53.4482532,197.230597 59.2144663,201.686889 65.3987229,205.477105 L61.611249,212.073754 L65.841849,214.581985 L69.6878491,207.926811 C76.0114536,211.407679 82.7503146,214.191816 89.7400016,216.282008 L87.7612625,223.631127 L92.4990887,224.913111 L94.4778278,217.533337 C100.826515,219.066145 107.317337,219.98583 113.863898,220.261736 L113.863898,237 L123.108233,237 L123.108233,220.261736 C130.797446,219.927305 138.428133,218.731714 145.782911,216.69726 L147.953951,224.913111 L152.744729,223.631127 L150.487294,215.250847 C156.309246,213.327869 161.936112,210.875376 167.256412,207.951893 L171.071755,214.554116 L175.388751,212.073754 L171.573407,205.477105 C177.701925,201.714758 183.465351,197.286336 188.729912,192.247578 L194.18956,197.648636 L197.701125,194.195637 L192.241477,188.76671 C197.252425,183.502211 201.680899,177.708196 205.443291,171.554668 L212.070673,175.397836 L214.551065,171.080891 L207.923682,167.265593 C211.346065,161.000588 214.160891,154.259019 216.220452,147.269414 L223.6031,149.217474 L224.8851,144.485278 L217.502452,142.478692 C219.063147,136.018603 219.982843,129.530644 220.2058,123.123507 L236.944261,123.123507 L237,123.123507 L237,113.87928 L236.944261,113.87928 Z" id="Fill-7" mask="url(#mask-2)"></path>
            </g>
        </g>
    </g>
</svg>

<svg xmlns="http://www.w3.org/2000/svg" xmlns:xlink="http://www.w3.org/1999/xlink" width="237" height="169" viewBox="0 0 237 169">
    <defs>
        <path id="prefix__a" d="M0 237L237 237 237 0 0 0z"/>
    </defs>
    <g fill="none" fill-rule="evenodd" opacity=".105">
        <path fill="#5E5E5E" d="M119 201.215c-45.332 0-82.215-36.881-82.215-82.215S73.668 36.785 119 36.785 201.215 73.666 201.215 119 164.332 201.215 119 201.215M119 34c-46.87 0-85 38.131-85 85 0 46.871 38.13 85 85 85s85-38.129 85-85c0-46.869-38.13-85-85-85"/>
        <path fill="#5E5E5E" d="M149.586 117.941c-16.202-4.974-25.553-14.322-30.526-30.525-.17-.555-.93-.555-1.1 0-4.974 16.203-14.324 25.551-30.546 30.525-.552.17-.552.93 0 1.1 16.222 4.974 25.572 14.322 30.546 30.545.17.552.93.552 1.1 0 4.973-16.223 14.324-25.57 30.526-30.544.552-.171.552-.93 0-1.101"/>
        <mask id="prefix__b" fill="#fff">
            <use xlink:href="#prefix__a"/>
        </mask>
        <path fill="#5E5E5E" d="M0.47 123L0.53 123 0.53 114 0.47 114z" mask="url(#prefix__b)"/>
        <path fill="#5E5E5E" d="M212.405 123.124c-1.112 23.396-10.75 45.2-27.435 61.88-17.741 17.77-41.333 27.544-66.485 27.544-25.153 0-48.77-9.774-66.539-27.544-16.658-16.652-26.295-38.484-27.407-61.88-.083-1.533-.111-3.088-.111-4.621 0-1.533.028-3.094.111-4.624C25.651 90.483 35.29 68.68 51.974 52c17.742-17.77 41.333-27.544 66.483-27.544 25.152 0 48.772 9.774 66.541 27.543 16.658 16.652 26.295 38.485 27.407 61.881.084 1.53.112 3.091.112 4.624 0 1.558-.028 3.088-.112 4.62zm24.54-9.245h-16.74c-.28-6.463-1.198-12.95-2.73-19.358l7.41-2-1.282-4.738-7.383 1.95c-2.031-6.961-4.815-13.7-8.296-20.024l6.6-3.787-2.481-4.317-6.6 3.843c-3.762-6.181-8.19-11.945-13.23-17.21l5.43-5.43-3.51-3.457-5.403 5.404c-5.237-4.983-11-9.44-17.184-13.227l3.787-6.599-4.233-2.508-3.844 6.655c-6.323-3.48-13.065-6.265-20.055-8.352l1.976-7.355-4.735-1.28-1.976 7.38c-6.351-1.532-12.84-2.45-19.386-2.73V0h-9.247v16.738c-7.686.335-15.317 1.533-22.672 3.565l-2.17-8.213-4.794 1.279 2.26 8.383c-5.825 1.92-11.452 4.373-16.77 7.296l-3.814-6.6-4.32 2.481 3.815 6.6c-6.126 3.756-11.892 8.185-17.156 13.226l-5.457-5.404-3.512 3.456 5.46 5.432c-5.014 5.264-9.442 11.056-13.202 17.21l-6.63-3.844-2.478 4.317 6.628 3.815c-3.426 6.268-6.238 13.007-8.297 19.996l-7.383-1.95-1.282 4.737 7.383 2.001c-1.56 6.463-2.48 12.951-2.704 19.358H0v9.245h16.738c.28 6.46 1.199 12.95 2.729 19.355l-7.408 2.006 1.282 4.732 7.383-1.948c2.029 6.962 4.816 13.704 8.297 20.024l-6.6 3.788 2.478 4.317 6.602-3.843c3.76 6.184 8.188 11.947 13.23 17.212l-5.43 5.429 3.507 3.453 5.404-5.401c5.236 4.983 11.002 9.439 17.187 13.23l-3.788 6.596 4.23 2.508 3.847-6.655c6.323 3.48 13.062 6.265 20.052 8.355l-1.979 7.35 4.738 1.281 1.979-7.38c6.349 1.533 12.84 2.453 19.386 2.729V237h9.244v-16.738c7.69-.335 15.32-1.53 22.675-3.565l2.171 8.216 4.79-1.282-2.257-8.38c5.822-1.923 11.45-4.376 16.77-7.3l3.815 6.603 4.317-2.48-3.816-6.597c6.129-3.762 11.892-8.19 17.157-13.23l5.46 5.402 3.511-3.453-5.46-5.43c5.011-5.264 9.44-11.058 13.202-17.211l6.628 3.843 2.48-4.317-6.627-3.815c3.422-6.265 6.237-13.007 8.296-19.997l7.383 1.948 1.282-4.732-7.383-2.006c1.561-6.46 2.48-12.948 2.704-19.355H237v-9.245h-.056z" mask="url(#prefix__b)"/>
    </g>
</svg>
